X: 4807
T: Boys Of The Old Brigade, The
R: barndance
M: 4/4
K: Gmajor
D4|B6 c2|d6 B2|c2B2 A2G2|E6 c2|B6B2|c2B2 A2G2|A8-|A4D4|
B6 c2|d6 B2|c2B2 A2G2|E6 c2|B6B2|c2 A2 G2 F2|G8-|G4||
G4|F6 G2|A6 B2|c4 d4|d6 c2|B6 d2|c4 B4|A8-|A4 D4|
D6 E2|F6 G2|A4 B4|c6 c2|B4 A2G2|A2B2-B2A2|G8-|G4||

